source/assets/images/flags/Vietnam.svg

<svg viewBox="0 0 3750 2500" xmlns="http://www.w3.org/2000/svg" fill-rule="evenodd" clip-rule="evenodd" stroke-linejoin="round" stroke-miterlimit="1.414"><path fill="#DA2727" fill-rule="nonzero" d="M0 0h3750.003v2500.002H0z"/><path d="M1371.66 1815.1l168.39-518.24-440.84-320.288h544.9l168.39-518.24 168.392 518.24h544.9l-440.84 320.29 168.39 518.24-440.84-320.29-440.84 320.29z" fill="#F6EB14"/></svg>

<?xml version="1.0" standalone="no"?>
<!DOCTYPE svg PUBLIC "-//W3C//DTD SVG 1.1//EN" "http://www.w3.org/Graphics/SVG/1.1/DTD/svg11.dtd">
<svg width="100%" height="100%" viewBox="0 0 3750 2500" version="1.1" xmlns="http://www.w3.org/2000/svg" xmlns:xlink="http://www.w3.org/1999/xlink" xml:space="preserve" style="fill-rule:evenodd;clip-rule:evenodd;stroke-linejoin:round;stroke-miterlimit:1.41421;">
    <g id="Layer 1" transform="matrix(4.16667,0,0,4.16667,0,0)">
        <rect x="0" y="0" width="900" height="600" style="fill:rgb(218,39,39);fill-rule:nonzero;"/>
        <g transform="matrix(0.24,0,0,0.24,0,0)">
            <path d="M1371.66,1815.1L1540.05,1296.86L1099.21,976.571L1644.11,976.571L1812.5,458.333L1980.89,976.571L2525.79,976.571L2084.95,1296.86L2253.34,1815.1L1812.5,1494.81L1371.66,1815.1Z" style="fill:rgb(246,235,20);"/>
        </g>
    </g>
</svg>
